img/icons/whatsapp-footer.svg

<svg width="18" height="18" viewBox="0 0 18 18" fill="none" xmlns="http://www.w3.org/2000/svg">
<path d="M15.3769 2.61905C14.5476 1.78558 13.5599 1.12475 12.4712 0.675098C11.3826 0.225444 10.2149 -0.00403209 9.03618 5.36125e-05C4.09749 5.36125e-05 0.0723619 4.00504 0.0723619 8.91903C0.0723619 10.494 0.488442 12.024 1.26633 13.374L0 18L4.74874 16.758C6.0603 17.469 7.53467 17.847 9.03618 17.847C13.9749 17.847 18 13.842 18 8.92803C18 6.54303 17.0683 4.30204 15.3769 2.61905ZM9.03618 16.335C7.69749 16.335 6.38593 15.975 5.23719 15.3L4.96583 15.138L2.14372 15.876L2.89447 13.14L2.71357 12.861C1.96982 11.6793 1.5749 10.3133 1.57387 8.91903C1.57387 4.83304 4.9206 1.50305 9.02713 1.50305C11.0171 1.50305 12.8894 2.27705 14.2915 3.68104C14.9857 4.36861 15.5358 5.18643 15.91 6.08712C16.2842 6.9878 16.475 7.95343 16.4714 8.92803C16.4894 13.014 13.1427 16.335 9.03618 16.335ZM13.1246 10.791C12.8985 10.683 11.795 10.143 11.596 10.062C11.3879 9.99002 11.2432 9.95402 11.0894 10.17C10.9357 10.395 10.5106 10.899 10.3839 11.043C10.2573 11.196 10.1216 11.214 9.89548 11.097C9.66935 10.989 8.94573 10.746 8.09548 9.99002C7.42613 9.39603 6.98291 8.66703 6.84724 8.44203C6.7206 8.21703 6.82914 8.10003 6.94673 7.98303C7.04623 7.88403 7.17286 7.72203 7.28141 7.59603C7.38995 7.47003 7.43518 7.37103 7.50754 7.22703C7.5799 7.07403 7.54372 6.94803 7.48945 6.84003C7.43518 6.73203 6.98291 5.63404 6.80201 5.18404C6.6211 4.75204 6.43116 4.80604 6.29548 4.79704H5.86131C5.70754 4.79704 5.47236 4.85104 5.26432 5.07604C5.06533 5.30104 4.48643 5.84104 4.48643 6.93903C4.48643 8.03703 5.29146 9.09903 5.4 9.24303C5.50854 9.39603 6.98291 11.646 9.22613 12.609C9.7598 12.843 10.1759 12.978 10.5015 13.077C11.0352 13.248 11.5236 13.221 11.9126 13.167C12.3467 13.104 13.2422 12.627 13.4231 12.105C13.6131 11.583 13.6131 11.142 13.5497 11.043C13.4864 10.944 13.3508 10.899 13.1246 10.791Z" fill="#43442F"/>
</svg>

<svg width="18" height="18" fill="none" xmlns="http://www.w3.org/2000/svg"><path d="M15.377 2.619A8.917 8.917 0 009.037 0C4.096 0 .071 4.005.071 8.92a8.91 8.91 0 001.194 4.455L0 18l4.749-1.242a9.002 9.002 0 004.287 1.089c4.939 0 8.964-4.005 8.964-8.919a8.84 8.84 0 00-2.623-6.309zm-6.34 13.716c-1.34 0-2.651-.36-3.8-1.035l-.271-.162-2.822.738.75-2.736-.18-.279a7.41 7.41 0 01-1.14-3.942c0-4.086 3.347-7.416 7.453-7.416 1.99 0 3.862.774 5.264 2.178a7.362 7.362 0 012.18 5.247c.018 4.086-3.328 7.407-7.435 7.407zm4.088-5.544c-.226-.108-1.33-.648-1.529-.729-.208-.072-.353-.108-.507.108-.153.225-.578.729-.705.873-.127.153-.262.171-.489.054-.226-.108-.95-.351-1.8-1.107-.669-.594-1.112-1.323-1.248-1.548-.126-.225-.018-.342.1-.459.1-.099.226-.261.334-.387.109-.126.154-.225.227-.369.072-.153.036-.279-.019-.387a73.873 73.873 0 01-.687-1.656c-.18-.432-.37-.378-.507-.387h-.434a.814.814 0 00-.597.279c-.199.225-.778.765-.778 1.863 0 1.098.805 2.16.914 2.304.109.153 1.583 2.403 3.826 3.366.534.234.95.369 1.275.468.534.171 1.023.144 1.412.09.434-.063 1.33-.54 1.51-1.062.19-.522.19-.963.127-1.062-.064-.099-.2-.144-.425-.252z" fill="#43442F"/></svg>
